chrome/img/iconOn32.svg

<?xml version="1.0" encoding="UTF-8" standalone="no"?>
<!-- Created with Inkscape (http://www.inkscape.org/) -->

<svg
   xmlns:dc="http://purl.org/dc/elements/1.1/"
   xmlns:cc="http://creativecommons.org/ns#"
   xmlns:rdf="http://www.w3.org/1999/02/22-rdf-syntax-ns#"
   xmlns:svg="http://www.w3.org/2000/svg"
   xmlns="http://www.w3.org/2000/svg"
   xmlns:sodipodi="http://sodipodi.sourceforge.net/DTD/sodipodi-0.dtd"
   xmlns:inkscape="http://www.inkscape.org/namespaces/inkscape"
   width="32"
   height="32"
   id="svg2993"
   version="1.1"
   inkscape:version="0.48.4 r9939"
   sodipodi:docname="iconOn32.svg"
   inkscape:export-filename="/home/pnagy/ClickToSpeech/chrome/img/iconOn32.png"
   inkscape:export-xdpi="180"
   inkscape:export-ydpi="180">
  <defs
     id="defs2995">
    <inkscape:path-effect
       effect="spiro"
       id="path-effect4138"
       is_visible="true" />
    <inkscape:path-effect
       effect="spiro"
       id="path-effect4138-0"
       is_visible="true" />
  </defs>
  <sodipodi:namedview
     id="base"
     pagecolor="#ffffff"
     bordercolor="#666666"
     borderopacity="1.0"
     inkscape:pageopacity="0.0"
     inkscape:pageshadow="2"
     inkscape:zoom="11.313708"
     inkscape:cx="20.454945"
     inkscape:cy="20.000017"
     inkscape:current-layer="layer1"
     showgrid="true"
     inkscape:document-units="px"
     inkscape:grid-bbox="true"
     inkscape:window-width="1366"
     inkscape:window-height="713"
     inkscape:window-x="-2"
     inkscape:window-y="-3"
     inkscape:window-maximized="1" />
  <metadata
     id="metadata2998">
    <rdf:RDF>
      <cc:Work
         rdf:about="">
        <dc:format>image/svg+xml</dc:format>
        <dc:type
           rdf:resource="http://purl.org/dc/dcmitype/StillImage" />
        <dc:title></dc:title>
      </cc:Work>
    </rdf:RDF>
  </metadata>
  <g
     id="layer1"
     inkscape:label="Layer 1"
     inkscape:groupmode="layer"
     transform="translate(0,-32)">
    <path
       sodipodi:type="arc"
       style="fill:#00ff00;fill-opacity:1;stroke:#000000;stroke-width:2.81818174999999993;stroke-miterlimit:4;stroke-opacity:1;stroke-dasharray:none"
       id="path3001"
       sodipodi:cx="-50.363636"
       sodipodi:cy="8.181818"
       sodipodi:rx="11.272727"
       sodipodi:ry="11.272727"
       d="m -39.090909,8.181818 c 0,6.225755 -5.046972,11.272727 -11.272727,11.272727 -6.225755,0 -11.272727,-5.046972 -11.272727,-11.272727 0,-6.2257552 5.046972,-11.272727 11.272727,-11.272727 6.225755,0 11.272727,5.0469718 11.272727,11.272727 z"
       transform="matrix(0.70967745,0,0,0.70967745,51.741936,42.193548)" />
    <path
       sodipodi:type="arc"
       style="fill:none;stroke:#3c3c3c;stroke-width:2.19179535;stroke-miterlimit:4;stroke-opacity:1;stroke-dasharray:none"
       id="path3755"
       sodipodi:cx="-29.363636"
       sodipodi:cy="21.363636"
       sodipodi:rx="17.181818"
       sodipodi:ry="15.727273"
       d="m -12.181818,21.363636 c 0,8.685933 -7.692562,15.727273 -17.181818,15.727273 -9.489256,0 -17.181818,-7.04134 -17.181818,-15.727273 0,-8.685933 7.692562,-15.727273 17.181818,-15.727273 9.489256,0 17.181818,7.04134 17.181818,15.727273 z"
       transform="matrix(0.87301588,0,0,0.95375721,41.634921,27.624278)"
       inkscape:export-xdpi="180"
       inkscape:export-ydpi="180" />
    <path
       style="fill:#ffffff;fill-opacity:1;fill-rule:evenodd;stroke:#000000;stroke-width:1.97999999999999998;stroke-linecap:butt;stroke-linejoin:miter;stroke-miterlimit:4;stroke-opacity:1;stroke-dasharray:none"
       d="M 27.067334,62.801 22.400429,58.134095 20.066977,62.334309 14,46.000142 l 16.334167,6.066977 -4.200214,2.333452 4.666905,4.666905 -3.733524,3.733524"
       id="path4136"
       inkscape:path-effect="#path-effect4138-0"
       inkscape:original-d="M 27.067334,62.801 22.400429,58.134095 20.066977,62.334309 14,46.000142 l 16.334167,6.066977 -4.200214,2.333452 4.666905,4.666905 z"
       inkscape:connector-curvature="0"
       sodipodi:nodetypes="cccccccc" />
  </g>
</svg>

<?xml version="1.0" encoding="UTF-8" standalone="no"?>
<!-- Created with Inkscape (http://www.inkscape.org/) -->

<svg
   xmlns:dc="http://purl.org/dc/elements/1.1/"
   xmlns:cc="http://creativecommons.org/ns#"
   xmlns:rdf="http://www.w3.org/1999/02/22-rdf-syntax-ns#"
   xmlns:svg="http://www.w3.org/2000/svg"
   xmlns="http://www.w3.org/2000/svg"
   xmlns:sodipodi="http://sodipodi.sourceforge.net/DTD/sodipodi-0.dtd"
   xmlns:inkscape="http://www.inkscape.org/namespaces/inkscape"
   width="32"
   height="32"
   id="svg2993"
   version="1.1"
   inkscape:version="0.91 r13725"
   sodipodi:docname="iconOn32.svg"
   inkscape:export-filename="/home/zsolt/prog/TouchToSpeech/chrome/img/iconOn32.png"
   inkscape:export-xdpi="180"
   inkscape:export-ydpi="180">
  <defs
     id="defs2995" />
  <sodipodi:namedview
     id="base"
     pagecolor="#ffffff"
     bordercolor="#666666"
     borderopacity="1.0"
     inkscape:pageopacity="0.0"
     inkscape:pageshadow="2"
     inkscape:zoom="5.6568542"
     inkscape:cx="-29.161319"
     inkscape:cy="23.386884"
     inkscape:current-layer="layer1"
     showgrid="true"
     inkscape:document-units="px"
     inkscape:grid-bbox="true"
     inkscape:window-width="1280"
     inkscape:window-height="743"
     inkscape:window-x="0"
     inkscape:window-y="0"
     inkscape:window-maximized="1" />
  <metadata
     id="metadata2998">
    <rdf:RDF>
      <cc:Work
         rdf:about="">
        <dc:format>image/svg+xml</dc:format>
        <dc:type
           rdf:resource="http://purl.org/dc/dcmitype/StillImage" />
        <dc:title />
      </cc:Work>
    </rdf:RDF>
  </metadata>
  <g
     id="layer1"
     inkscape:label="Layer 1"
     inkscape:groupmode="layer"
     transform="translate(0,-32)">
    <path
       sodipodi:type="arc"
       style="fill:#00ff00;fill-opacity:1;stroke:#000000;stroke-width:2.81818174999999993;stroke-miterlimit:4;stroke-opacity:1;stroke-dasharray:none"
       id="path3001"
       sodipodi:cx="-50.363636"
       sodipodi:cy="8.181818"
       sodipodi:rx="11.272727"
       sodipodi:ry="11.272727"
       d="M -39.090909,8.181818 A 11.272727,11.272727 0 0 1 -50.363636,19.454545 11.272727,11.272727 0 0 1 -61.636363,8.181818 11.272727,11.272727 0 0 1 -50.363636,-3.090909 11.272727,11.272727 0 0 1 -39.090909,8.181818 Z"
       transform="matrix(0.70967745,0,0,0.70967745,51.741936,42.193548)" />
    <path
       sodipodi:type="arc"
       style="fill:none;stroke:#3c3c3c;stroke-width:2.19179535;stroke-miterlimit:4;stroke-opacity:1;stroke-dasharray:none"
       id="path3755"
       sodipodi:cx="-29.363636"
       sodipodi:cy="21.363636"
       sodipodi:rx="17.181818"
       sodipodi:ry="15.727273"
       d="M -12.181818,21.363636 A 17.181818,15.727273 0 0 1 -29.363636,37.090909 17.181818,15.727273 0 0 1 -46.545454,21.363636 17.181818,15.727273 0 0 1 -29.363636,5.636363 17.181818,15.727273 0 0 1 -12.181818,21.363636 Z"
       transform="matrix(0.87301588,0,0,0.95375721,41.634921,27.624278)" />
  </g>
</svg>
